packages/ffe-icons/icons/open/400/sm/crop_free.svg

<svg xmlns="http://www.w3.org/2000/svg" height="20" viewBox="0 -960 960 960" width="20"><path d="M216-144q-29.7 0-50.85-21.15Q144-186.3 144-216v-132q0-15.3 10.289-25.65 10.29-10.35 25.5-10.35Q195-384 205.5-373.65 216-363.3 216-348v132h132q15.3 0 25.65 10.289 10.35 10.29 10.35 25.5Q384-165 373.65-154.5 363.3-144 348-144H216Zm528 0H612q-15.3 0-25.65-10.289-10.35-10.29-10.35-25.5Q576-195 586.35-205.5 596.7-216 612-216h132v-132q0-15.3 10.289-25.65 10.29-10.35 25.5-10.35Q795-384 805.5-373.65 816-363.3 816-348v132q0 29.7-21.15 50.85Q773.7-144 744-144ZM144-612v-132q0-29.7 21.15-50.85Q186.3-816 216-816h132q15.3 0 25.65 10.289 10.35 10.29 10.35 25.5Q384-765 373.65-754.5 363.3-744 348-744H216v132q0 15.3-10.289 25.65-10.29 10.35-25.5 10.35Q165-576 154.5-586.35 144-596.7 144-612Zm600 0v-132H612q-15.3 0-25.65-10.289-10.35-10.29-10.35-25.5Q576-795 586.35-805.5 596.7-816 612-816h132q29.7 0 50.85 21.15Q816-773.7 816-744v132q0 15.3-10.289 25.65-10.29 10.35-25.5 10.35Q765-576 754.5-586.35 744-596.7 744-612Z"/></svg>

<svg xmlns="http://www.w3.org/2000/svg" height="20" viewBox="0 -960 960 960" width="20"><path d="M216-144q-29.7 0-50.85-21.15Q144-186.3 144-216v-132q0-15.3 10.29-25.65Q164.58-384 179.79-384t25.71 10.35Q216-363.3 216-348v132h132q15.3 0 25.65 10.29Q384-195.42 384-180.21t-10.35 25.71Q363.3-144 348-144H216Zm528 0H612q-15.3 0-25.65-10.29Q576-164.58 576-179.79t10.35-25.71Q596.7-216 612-216h132v-132q0-15.3 10.29-25.65Q764.58-384 779.79-384t25.71 10.35Q816-363.3 816-348v132q0 29.7-21.15 50.85Q773.7-144 744-144ZM144-612v-132q0-29.7 21.15-50.85Q186.3-816 216-816h132q15.3 0 25.65 10.29Q384-795.42 384-780.21t-10.35 25.71Q363.3-744 348-744H216v132q0 15.3-10.29 25.65Q195.42-576 180.21-576t-25.71-10.35Q144-596.7 144-612Zm600 0v-132H612q-15.3 0-25.65-10.29Q576-764.58 576-779.79t10.35-25.71Q596.7-816 612-816h132q29.7 0 50.85 21.15Q816-773.7 816-744v132q0 15.3-10.29 25.65Q795.42-576 780.21-576t-25.71-10.35Q744-596.7 744-612Z"/></svg>
